currency-ngn.svg

<svg fill="currentColor" viewBox="0 0 24 24"><path d="M4 9h2V3h2l3.42 6H16V3h2v6h2v2h-2v2h2v2h-2v6h-2l-3.43-6H8v6H6v-6H4v-2h2v-2H4zm4 0h1.13L8 7.03zm0 2v2h3.42l-1.14-2zm8 6v-2h-1.15zm-3.44-6 1.15 2H16v-2z"/></svg>

<svg  viewBox="0 0 24 24" fill="currentColor"><path  d="M4,9H6V3H8L11.42,9H16V3H18V9H20V11H18V13H20V15H18V21H16L12.57,15H8V21H6V15H4V13H6V11H4V9M8,9H9.13L8,7.03V9M8,11V13H11.42L10.28,11H8M16,17V15H14.85L16,17M12.56,11L13.71,13H16V11H12.56Z"/></svg>
